lib/flags/gb-ukm-united-kingdom.svg

<svg xmlns="http://www.w3.org/2000/svg" fill="none" aria-hidden="true" viewBox="0 0 42 30"><g id="Country=GB-UKM - United Kingdom, Size=sm (36x24)" filter="url(#filter0_dd_91_28193)"><g clip-path="url(#clip0_91_28193)"><g id="flag"><mask id="mask0_91_28193" width="36" height="24" x="3" y="2" maskUnits="userSpaceOnUse" style="mask-type:alpha"><rect id="mask" width="36" height="24" x="3" y="2" fill="white"/></mask><g mask="url(#mask0_91_28193)"><g id="contents"><path id="background" fill="#2E42A5" fill-rule="evenodd" d="M3 2V26H39V2H3Z" clip-rule="evenodd"/><mask id="mask1_91_28193" width="36" height="24" x="3" y="2" maskUnits="userSpaceOnUse" style="mask-type:alpha"><path id="background_2" fill="white" fill-rule="evenodd" d="M3 2V26H39V2H3Z" clip-rule="evenodd"/></mask><g mask="url(#mask1_91_28193)"><g id="mark 1"><mask id="mask2_91_28193" width="36" height="24" x="3" y="2" maskUnits="userSpaceOnUse" style="mask-type:alpha"><rect id="mask_2" width="36" height="24" x="3" y="2" fill="white"/></mask><g mask="url(#mask2_91_28193)"><g id="contents_2"><g id="stripe"><path id="white" fill="white" d="M-1.0083 24.2851L6.9136 27.2632L39.18 5.23756L43.3586 0.812082L34.8873 -0.183273L21.7266 9.3082L11.1336 15.7032L-1.0083 24.2851Z"/><path id="red" fill="#F50100" d="M0.0761719 26.3719L4.11201 28.1001L41.8581 0.401157H36.1913L0.0761719 26.3719Z"/></g><g id="stripe_2"><path id="white_2" fill="white" d="M43.0088 24.2851L35.0869 27.2632L2.8205 5.23756L-1.35812 0.812082L7.11321 -0.183273L20.2739 9.3082L30.8669 15.7032L43.0088 24.2851Z"/><path id="red_2" fill="#F50100" d="M42.7383 25.7825L38.7024 27.5107L22.6298 15.6514L17.8646 14.3264L-1.7604 0.827171H3.90639L23.5204 14.006L28.7303 15.5948L42.7383 25.7825Z"/></g><g id="cross"><g id="red_3"><mask id="path-10-inside-1_91_28193" fill="white"><path fill-rule="evenodd" d="M25.2503 0H16.7503V10H0.78125V18H16.7503V28H25.2503V18H41.2812V10H25.2503V0Z" clip-rule="evenodd"/></mask><path fill="#F50100" fill-rule="evenodd" d="M25.2503 0H16.7503V10H0.78125V18H16.7503V28H25.2503V18H41.2812V10H25.2503V0Z" clip-rule="evenodd"/><path fill="white" d="M16.7503 0V-2H14.7503V0H16.7503ZM25.2503 0H27.2503V-2H25.2503V0ZM16.7503 10V12H18.7503V10H16.7503ZM0.78125 10V8H-1.21875V10H0.78125ZM0.78125 18H-1.21875V20H0.78125V18ZM16.7503 18H18.7503V16H16.7503V18ZM16.7503 28H14.7503V30H16.7503V28ZM25.2503 28V30H27.2503V28H25.2503ZM25.2503 18V16H23.2503V18H25.2503ZM41.2812 18V20H43.2812V18H41.2812ZM41.2812 10H43.2812V8H41.2812V10ZM25.2503 10H23.2503V12H25.2503V10ZM16.7503 2H25.2503V-2H16.7503V2ZM18.7503 10V0H14.7503V10H18.7503ZM0.78125 12H16.7503V8H0.78125V12ZM2.78125 18V10H-1.21875V18H2.78125ZM16.7503 16H0.78125V20H16.7503V16ZM18.7503 28V18H14.7503V28H18.7503ZM25.2503 26H16.7503V30H25.2503V26ZM23.2503 18V28H27.2503V18H23.2503ZM41.2812 16H25.2503V20H41.2812V16ZM39.2812 10V18H43.2812V10H39.2812ZM25.2503 12H41.2812V8H25.2503V12ZM23.2503 0V10H27.2503V0H23.2503Z" mask="url(#path-10-inside-1_91_28193)"/></g></g></g></g></g></g></g></g></g></g></g><defs><filter id="filter0_dd_91_28193" width="42" height="30" x="0" y="0" color-interpolation-filters="sRGB" filterUnits="userSpaceOnUse"><feFlood flood-opacity="0" result="BackgroundImageFix"/><feColorMatrix in="SourceAlpha" result="hardAlpha" values="0 0 0 0 0 0 0 0 0 0 0 0 0 0 0 0 0 0 127 0"/><feOffset dy="1"/><feGaussianBlur stdDeviation="1"/><feColorMatrix values="0 0 0 0 0.0627451 0 0 0 0 0.0941176 0 0 0 0 0.156863 0 0 0 0.06 0"/><feBlend in2="BackgroundImageFix" result="effect1_dropShadow_91_28193"/><feColorMatrix in="SourceAlpha" result="hardAlpha" values="0 0 0 0 0 0 0 0 0 0 0 0 0 0 0 0 0 0 127 0"/><feOffset dy="1"/><feGaussianBlur stdDeviation="1.5"/><feColorMatrix values="0 0 0 0 0.0627451 0 0 0 0 0.0941176 0 0 0 0 0.156863 0 0 0 0.1 0"/><feBlend in2="effect1_dropShadow_91_28193" result="effect2_dropShadow_91_28193"/><feBlend in="SourceGraphic" in2="effect2_dropShadow_91_28193" result="shape"/></filter><clipPath id="clip0_91_28193"><rect width="36" height="24" x="3" y="2" fill="white" rx="2"/></clipPath></defs></svg>

<svg xmlns="http://www.w3.org/2000/svg" fill="none" aria-hidden="true" viewBox="0 0 42 30"><g filter="url(#a)"><g clip-path="url(#b)"><mask id="c" width="36" height="24" x="3" y="2" maskUnits="userSpaceOnUse" style="mask-type:alpha"><path fill="#fff" d="M3 2h36v24H3z"/></mask><g mask="url(#c)"><path fill="#2E42A5" fill-rule="evenodd" d="M3 2v24h36V2H3Z" clip-rule="evenodd"/><mask id="d" width="36" height="24" x="3" y="2" maskUnits="userSpaceOnUse" style="mask-type:alpha"><path fill="#fff" fill-rule="evenodd" d="M3 2v24h36V2H3Z" clip-rule="evenodd"/></mask><g mask="url(#d)"><mask id="e" width="36" height="24" x="3" y="2" maskUnits="userSpaceOnUse" style="mask-type:alpha"><path fill="#fff" d="M3 2h36v24H3z"/></mask><g mask="url(#e)"><path fill="#fff" d="m-1.008 24.285 7.922 2.978L39.18 5.238 43.359.812l-8.472-.995-13.16 9.491-10.593 6.395-12.142 8.582Z"/><path fill="#F50100" d="M.076 26.372 4.112 28.1 41.858.401h-5.667L.076 26.371Z"/><path fill="#fff" d="m43.009 24.285-7.922 2.978L2.82 5.238-1.357.812l8.471-.995 13.16 9.491 10.594 6.395 12.142 8.582Z"/><path fill="#F50100" d="m42.738 25.782-4.036 1.729L22.63 15.65l-4.765-1.325L-1.76.827h5.666L23.52 14.006l5.21 1.589 14.008 10.187Z"/><mask id="f" fill="#fff"><path fill-rule="evenodd" d="M25.25 0h-8.5v10H.781v8h15.97v10h8.5V18h16.03v-8h-16.03V0Z" clip-rule="evenodd"/></mask><path fill="#F50100" fill-rule="evenodd" d="M25.25 0h-8.5v10H.781v8h15.97v10h8.5V18h16.03v-8h-16.03V0Z" clip-rule="evenodd"/><path fill="#fff" d="M16.75 0v-2h-2v2h2Zm8.5 0h2v-2h-2v2Zm-8.5 10v2h2v-2h-2ZM.781 10V8h-2v2h2Zm0 8h-2v2h2v-2Zm15.97 0h2v-2h-2v2Zm0 10h-2v2h2v-2Zm8.5 0v2h2v-2h-2Zm0-10v-2h-2v2h2Zm16.03 0v2h2v-2h-2Zm0-8h2V8h-2v2Zm-16.03 0h-2v2h2v-2Zm-8.5-8h8.5v-4h-8.5v4Zm2 8V0h-4v10h4ZM.78 12h15.97V8H.78v4Zm2 6v-8h-4v8h4Zm13.97-2H.78v4h15.97v-4Zm2 12V18h-4v10h4Zm6.5-2h-8.5v4h8.5v-4Zm-2-8v10h4V18h-4Zm18.03-2H25.25v4h16.03v-4Zm-2-6v8h4v-8h-4Zm-14.03 2h16.03V8H25.25v4Zm-2-12v10h4V0h-4Z" mask="url(#f)"/></g></g></g></g></g><defs><clipPath id="b"><rect width="36" height="24" x="3" y="2" fill="#fff" rx="2"/></clipPath><filter id="a" width="42" height="30" x="0" y="0" color-interpolation-filters="sRGB" filterUnits="userSpaceOnUse"><feFlood flood-opacity="0" result="BackgroundImageFix"/><feColorMatrix in="SourceAlpha" result="hardAlpha" values="0 0 0 0 0 0 0 0 0 0 0 0 0 0 0 0 0 0 127 0"/><feOffset dy="1"/><feGaussianBlur stdDeviation="1"/><feColorMatrix values="0 0 0 0 0.0627451 0 0 0 0 0.0941176 0 0 0 0 0.156863 0 0 0 0.06 0"/><feBlend in2="BackgroundImageFix" result="effect1_dropShadow_91_28193"/><feColorMatrix in="SourceAlpha" result="hardAlpha" values="0 0 0 0 0 0 0 0 0 0 0 0 0 0 0 0 0 0 127 0"/><feOffset dy="1"/><feGaussianBlur stdDeviation="1.5"/><feColorMatrix values="0 0 0 0 0.0627451 0 0 0 0 0.0941176 0 0 0 0 0.156863 0 0 0 0.1 0"/><feBlend in2="effect1_dropShadow_91_28193" result="effect2_dropShadow_91_28193"/><feBlend in="SourceGraphic" in2="effect2_dropShadow_91_28193" result="shape"/></filter></defs></svg>
